src/img/portfolio/spindle-toolings.svg

<svg width="203" height="195" viewBox="0 0 203 195" fill="none" xmlns="http://www.w3.org/2000/svg">
<path d="M6.21789 81.6901L7.19477 80.8089L6.57203 80.1186L2.44195 75.5403L2.53568 73.7193L5.65519 70.9052L10.6977 73.5619L11.2558 74.1806L11.2617 74.1871L14.8696 70.9324L14.3056 70.3072L12.337 64.8775L15.6975 61.8461L17.581 61.9306L21.7111 66.5089L24.3313 69.4135L26.0051 67.9037L98.5867 17.7604L99.9527 17.4022L109.787 28.3042" stroke="#2E2D2C" stroke-width="2" stroke-linecap="round" stroke-linejoin="round"/>
<path d="M98.5873 17.7601L108.857 29.144" stroke="#2E2D2C" stroke-width="2" stroke-linecap="round" stroke-linejoin="round"/>
<path d="M25.9977 67.8961L43.8986 87.7397" stroke="#2E2D2C" stroke-width="2" stroke-linecap="round" stroke-linejoin="round"/>
<path d="M24.3187 69.4127L42.2196 89.2563" stroke="#2E2D2C" stroke-width="2" stroke-linecap="round" stroke-linejoin="round"/>
<path d="M22.5588 76.209L37.8689 93.1807" stroke="#2E2D2C" stroke-width="2" stroke-linecap="round" stroke-linejoin="round"/>
<path d="M12.3377 64.8774L16.4619 69.4492" stroke="#2E2D2C" stroke-width="2" stroke-linecap="round" stroke-linejoin="round"/>
<path d="M20.9492 77.6597L36.2593 94.6313" stroke="#2E2D2C" stroke-width="2" stroke-linecap="round" stroke-linejoin="round"/>
<path d="M18.9987 75.4976L18.4464 74.8854L14.8686 70.9192" stroke="#2E2D2C" stroke-width="2" stroke-linecap="round" stroke-linejoin="round"/>
<path d="M6.57107 80.1308L6.66606 78.2851L9.77254 75.4827L14.8333 78.1465L15.3856 78.7587L19 75.4981L18.4478 74.8859L16.4609 69.4492L19.8279 66.4118L21.7102 66.5211" stroke="#2E2D2C" stroke-width="2" stroke-linecap="round" stroke-linejoin="round"/>
<path d="M11.7925 85.9209L15.8693 82.2432L17.3347 80.9213L20.9491 77.6607L22.5577 76.2096L26.9081 72.2852" stroke="#2E2D2C" stroke-width="2" stroke-linecap="round" stroke-linejoin="round"/>
<path d="M17.3357 80.9204L32.6458 97.8921" stroke="#2E2D2C" stroke-width="2" stroke-linecap="round" stroke-linejoin="round"/>
<path d="M15.3853 78.7583L14.833 78.1461L11.2552 74.18" stroke="#2E2D2C" stroke-width="2" stroke-linecap="round" stroke-linejoin="round"/>
<path d="M15.8721 82.2422L31.1821 99.2139" stroke="#2E2D2C" stroke-width="2" stroke-linecap="round" stroke-linejoin="round"/>
<path d="M5.64741 70.9106L9.77161 75.4824" stroke="#2E2D2C" stroke-width="2" stroke-linecap="round" stroke-linejoin="round"/>
<path d="M7.19289 80.8083L27.1089 102.886" stroke="#2E2D2C" stroke-width="2" stroke-linecap="round" stroke-linejoin="round"/>
<path d="M6.21828 81.6896L26.1343 103.767" stroke="#2E2D2C" stroke-width="2" stroke-linecap="round" stroke-linejoin="round"/>
<path d="M46.0488 125.845L47.0257 124.964L47.6426 125.648L51.7727 130.226L53.5995 130.326L56.719 127.512L56.7131 127.506L54.5882 122.217L54.0301 121.599L57.638 118.344L58.1962 118.963L63.395 121.478L63.4008 121.485L66.7613 118.453L66.8647 116.564L62.7347 111.986L60.1262 109.095L61.7999 107.585L119.119 40.522L119.615 39.1999L109.786 28.3044" stroke="#2E2D2C" stroke-width="2" stroke-linecap="round" stroke-linejoin="round"/>
<path d="M119.12 40.5215L108.857 29.1441" stroke="#2E2D2C" stroke-width="2" stroke-linecap="round" stroke-linejoin="round"/>
<path d="M61.7943 107.577L43.8993 87.74" stroke="#2E2D2C" stroke-width="2" stroke-linecap="round" stroke-linejoin="round"/>
<path d="M60.1152 109.094L42.2202 89.2566" stroke="#2E2D2C" stroke-width="2" stroke-linecap="round" stroke-linejoin="round"/>
<path d="M37.863 93.1743L53.1731 110.146" stroke="#2E2D2C" stroke-width="2" stroke-linecap="round" stroke-linejoin="round"/>
<path d="M59.2702 116.906L63.4003 121.484" stroke="#2E2D2C" stroke-width="2" stroke-linecap="round" stroke-linejoin="round"/>
<path d="M36.2534 94.6245L51.5635 111.596" stroke="#2E2D2C" stroke-width="2" stroke-linecap="round" stroke-linejoin="round"/>
<path d="M57.6516 118.343L54.0679 114.371L53.5157 113.758" stroke="#2E2D2C" stroke-width="2" stroke-linecap="round" stroke-linejoin="round"/>
<path d="M62.7299 111.992L62.6395 113.869L59.2726 116.906L54.0685 114.372L53.5163 113.76L49.9018 117.02L50.454 117.632L52.5842 122.94L49.4777 125.742L47.6379 125.654" stroke="#2E2D2C" stroke-width="2" stroke-linecap="round" stroke-linejoin="round"/>
<path d="M57.5238 106.222L53.1734 110.146L51.5648 111.597L47.9504 114.858L46.4851 116.18L42.4082 119.857" stroke="#2E2D2C" stroke-width="2" stroke-linecap="round" stroke-linejoin="round"/>
<path d="M32.64 97.8858L47.9501 114.857" stroke="#2E2D2C" stroke-width="2" stroke-linecap="round" stroke-linejoin="round"/>
<path d="M54.0381 121.604L50.4544 117.632L49.9021 117.02" stroke="#2E2D2C" stroke-width="2" stroke-linecap="round" stroke-linejoin="round"/>
<path d="M31.1764 99.2075L46.4865 116.179" stroke="#2E2D2C" stroke-width="2" stroke-linecap="round" stroke-linejoin="round"/>
<path d="M52.5834 122.939L56.7135 127.518" stroke="#2E2D2C" stroke-width="2" stroke-linecap="round" stroke-linejoin="round"/>
<path d="M47.0266 124.963L27.1106 102.886" stroke="#2E2D2C" stroke-width="2" stroke-linecap="round" stroke-linejoin="round"/>
<path d="M46.0483 125.845L26.1323 103.767" stroke="#2E2D2C" stroke-width="2" stroke-linecap="round" stroke-linejoin="round"/>
<path d="M172.096 130.633L133.71 92.2467M161.096 117.413L172.024 106.485C173.887 104.597 174.93 102.051 174.926 99.3985C174.923 96.7463 173.873 94.2023 172.006 92.319C170.119 90.464 167.579 89.4251 164.933 89.4262C162.288 89.4273 159.748 90.4685 157.864 92.325L146.936 103.253M171.288 107.221L184.743 120.676M169.183 109.869L185.991 126.677M185.991 126.677L189.369 130.054M185.991 126.677L168.912 109.597M174.219 103.156L188.241 117.178M175.353 99.5259L194.248 118.42M194.248 118.42L197.625 121.798M194.248 118.42L174.979 99.152M184.749 120.682L187.608 123.541M188.247 117.184L191.106 120.043M199.597 115.725L148.624 64.7521M173.2 129.517L172.09 130.627L109.026 177.637C108.794 177.814 108.506 177.9 108.215 177.88C107.925 177.86 107.651 177.735 107.446 177.529L86.8082 156.891C86.6034 156.685 86.4798 156.411 86.4599 156.121C86.4399 155.831 86.525 155.544 86.6996 155.311L133.716 92.2527L134.826 91.143M191.214 107.342L200.785 116.913C200.897 117.025 200.986 117.158 201.047 117.305C201.107 117.452 201.138 117.609 201.137 117.767C201.137 117.926 201.105 118.083 201.043 118.229C200.982 118.375 200.892 118.508 200.779 118.62L197.613 121.786L191.099 120.037L187.602 123.535L189.357 130.042L182.391 137.008C182.165 137.233 181.86 137.36 181.541 137.36C181.222 137.36 180.916 137.233 180.69 137.008L127.335 83.6527C127.11 83.4272 126.983 83.1213 126.983 82.8024C126.983 82.4834 127.11 82.1775 127.335 81.952L134.301 74.9864L140.808 76.7414M157.128 93.0608L140.808 76.7414M154.48 95.1656L137.666 78.3516M137.666 78.3516L134.295 74.9804M137.666 78.3516L154.752 95.437M161.187 90.1238L144.306 73.2435M164.823 88.996L145.922 70.0954M145.922 70.0954L142.551 66.7242M145.922 70.0954L165.197 89.3699M140.808 76.7414L144.306 73.2435M144.306 73.2435L142.557 66.7302L145.723 63.564C145.835 63.451 145.967 63.3612 146.114 63.2997C146.26 63.2382 146.417 63.2063 146.576 63.2057C146.734 63.2052 146.891 63.236 147.038 63.2964C147.185 63.3569 147.318 63.4458 147.43 63.558L157.013 73.141" stroke="#2E2D2C" stroke-width="2" stroke-linecap="round" stroke-linejoin="round"/>
</svg>

<svg xmlns="http://www.w3.org/2000/svg" width="203" height="195" fill="none">
    <path stroke="#2E2D2C" stroke-linecap="round" stroke-linejoin="round" stroke-width="2"
        d="m6.218 81.69.977-.881-.623-.69-4.13-4.579.094-1.82 3.12-2.815 5.042 2.657.558.619.006.006 3.608-3.255-.564-.625-1.969-5.43 3.36-3.03 1.884.084 4.13 4.578 2.62 2.904 1.674-1.51L98.587 17.76l1.366-.358 9.834 10.902M98.587 17.76l10.27 11.384M25.998 67.896l17.9 19.844M24.319 69.413l17.9 19.843M22.559 76.209l15.31 16.972M12.338 64.877l4.124 4.572M20.95 77.66 36.26 94.63" />
    <path stroke="#2E2D2C" stroke-linecap="round" stroke-linejoin="round" stroke-width="2"
        d="m18.999 75.498-.553-.613-3.577-3.966" />
    <path stroke="#2E2D2C" stroke-linecap="round" stroke-linejoin="round" stroke-width="2"
        d="m6.571 80.13.095-1.845 3.107-2.802 5.06 2.663.553.613L19 75.499l-.552-.613-1.987-5.437 3.367-3.037 1.882.11M11.793 85.92l4.076-3.677 1.466-1.322 3.614-3.26 1.609-1.451 4.35-3.925M17.336 80.92l15.31 16.972" />
    <path stroke="#2E2D2C" stroke-linecap="round" stroke-linejoin="round" stroke-width="2"
        d="m15.385 78.758-.552-.612-3.578-3.966M15.872 82.242l15.31 16.972M5.647 70.91l4.125 4.572M7.193 80.808l19.916 22.078M6.218 81.69l19.916 22.077M46.049 125.845l.977-.881.617.684 4.13 4.578 1.826.1 3.12-2.814-.006-.006-2.125-5.289-.558-.618 3.608-3.255.558.619 5.199 2.515.006.007 3.36-3.032.104-1.889-4.13-4.578-2.609-2.891 1.674-1.51 57.319-67.063.496-1.322-9.829-10.896M119.12 40.522l-10.263-11.378M61.794 107.577 43.9 87.74M60.115 109.094 42.22 89.257M37.863 93.174l15.31 16.972M59.27 116.906l4.13 4.578M36.253 94.624l15.31 16.972" />
    <path stroke="#2E2D2C" stroke-linecap="round" stroke-linejoin="round" stroke-width="2"
        d="m57.652 118.343-3.584-3.972-.552-.613" />
    <path stroke="#2E2D2C" stroke-linecap="round" stroke-linejoin="round" stroke-width="2"
        d="m62.73 111.992-.09 1.877-3.367 3.037-5.205-2.534-.552-.612-3.614 3.26.552.612 2.13 5.308-3.106 2.802-1.84-.088M57.524 106.222l-4.35 3.924-1.61 1.451-3.614 3.261-1.465 1.322-4.077 3.677M32.64 97.886l15.31 16.971" />
    <path stroke="#2E2D2C" stroke-linecap="round" stroke-linejoin="round" stroke-width="2"
        d="m54.038 121.604-3.584-3.972-.552-.612M31.176 99.207l15.31 16.972M52.583 122.939l4.13 4.579M47.027 124.963 27.11 102.886M46.048 125.845l-19.916-22.078M172.096 130.633 133.71 92.247m27.386 25.166 10.928-10.928a10.073 10.073 0 0 0-.018-14.166 10.083 10.083 0 0 0-14.142.006l-10.928 10.928m24.352 3.968 13.455 13.455m-15.56-10.807 16.808 16.808m0 0 3.378 3.377m-3.378-3.377-17.079-17.08m5.307-6.441 14.022 14.022m-12.888-17.652 18.895 18.894m0 0 3.377 3.378m-3.377-3.378-19.269-19.268m9.77 21.53 2.859 2.859m.639-6.357 2.859 2.859m8.491-4.318-50.973-50.973m24.576 64.765-1.11 1.11-63.064 47.01a1.2 1.2 0 0 1-1.58-.108l-20.638-20.638a1.21 1.21 0 0 1-.108-1.58l47.016-63.058 1.11-1.11m56.388 16.199 9.571 9.571a1.21 1.21 0 0 1 .352.854 1.206 1.206 0 0 1-.358.853l-3.166 3.166-6.514-1.749-3.497 3.498 1.755 6.507-6.966 6.966a1.204 1.204 0 0 1-1.701 0l-53.355-53.355a1.204 1.204 0 0 1 0-1.701l6.966-6.966 6.507 1.755m16.32 16.32-16.32-16.32m13.672 18.425-16.814-16.814m0 0-3.371-3.372m3.371 3.372 17.086 17.085m6.435-5.313-16.881-16.88m20.517 15.752-18.901-18.9m0 0-3.371-3.372m3.371 3.371 19.275 19.275M140.808 76.74l3.498-3.498m0 0-1.749-6.513 3.166-3.166a1.204 1.204 0 0 1 1.707-.006l9.583 9.583" />
</svg>
